resources/images/logo_black.svg

<svg width="288" height="48" fill="none" xmlns="http://www.w3.org/2000/svg"><path d="M167.519 17.2819v2.4211h-16.112v-1.8923l12.118-15.16649H151.6V.223145h15.561V2.11547L155.097 17.2819h12.422ZM173.963.223145h-2.754V19.703h2.754V.223145ZM193.738 17.2819v2.4211h-13.991V.223145h13.606V2.64421h-10.852v5.9831h9.667v2.36539h-9.667v6.2892h11.237ZM198.2.223145h2.754V17.2819h10.438v2.4211H198.2V.223145ZM222.905 19.9256c-1.956 0-3.691-.4453-5.261-1.3079-1.57-.8627-2.782-2.0315-3.663-3.5621-.909-1.5305-1.349-3.2281-1.349-5.09255 0-1.86451.44-3.56204 1.349-5.0926.881-1.53056 2.093-2.72718 3.663-3.58986 1.57-.862676 3.305-1.28010172 5.261-1.28010172 1.927 0 3.663.41742572 5.232 1.28010172 1.57.86268 2.782 2.0593 3.663 3.56204.882 1.53056 1.322 3.22809 1.322 5.12042 0 1.89235-.44 3.58985-1.322 5.09255-.881 1.5306-2.093 2.6994-3.663 3.5621-1.569.8626-3.305 1.3079-5.232 1.3079Zm0-2.4767c1.404 0 2.671-.334 3.828-.974 1.101-.6401 2.01-1.5584 2.644-2.6994.661-1.1409.991-2.3932.991-3.81245s-.33-2.69936-.991-3.84032c-.634-1.14096-1.515-2.03147-2.672-2.67152-1.129-.64006-2.396-.974-3.8-.974-1.405 0-2.7.33394-3.856.974-1.129.64005-2.038 1.53056-2.699 2.67152-.634 1.14096-.964 2.42107-.964 3.84032 0 1.41925.33 2.67155.964 3.81245.661 1.141 1.57 2.0593 2.699 2.6994 1.156.64 2.451.974 3.856.974ZM253.916.223145V19.703h-2.258L240.09 5.17659V19.703h-2.754V.223145h2.259L251.162 14.7496V.223145h2.754ZM273.691 17.2819v2.4211H259.7V.223145h13.606V2.64421h-10.852v5.9831h9.667v2.36539h-9.667v6.2892h11.237ZM166.378 28.2974l-6.445 19.4798h-2.892l-5.26-15.556-5.26 15.556h-2.947l-6.445-19.4798h2.837l5.205 15.8343 5.426-15.8343h2.534l5.315 15.9178 5.316-15.9178h2.616ZM184.688 45.3562v2.421h-16.111v-1.8923l12.118-15.1665h-11.926v-2.421h15.561v1.8923l-12.063 15.1665h12.421ZM201.925 37.9264h2.644v7.5972c-.964.807-2.066 1.4192-3.333 1.8367-1.267.4174-2.589.64-3.966.64-1.955 0-3.69-.4452-5.26-1.3079-1.57-.8627-2.782-2.0315-3.663-3.5621-.909-1.5027-1.35-3.2002-1.35-5.0925 0-1.8924.441-3.5899 1.35-5.1205.881-1.5305 2.12-2.6993 3.69-3.562 1.57-.8627 3.333-1.2801 5.288-1.2801 1.543 0 2.947.2505 4.214.7792 1.239.5009 2.314 1.2523 3.195 2.2263l-1.708 1.7253c-1.542-1.5027-3.415-2.2541-5.591-2.2541-1.459 0-2.781.3061-3.938.9462-1.184.64-2.093 1.5305-2.754 2.6715s-.992 2.4489-.992 3.8682c0 1.4192.331 2.6715.992 3.8124.661 1.141 1.57 2.0593 2.754 2.6994 1.157.64 2.451.974 3.911.974 1.735 0 3.222-.4174 4.517-1.2523v-6.3449ZM218.124 48.0001c-1.956 0-3.691-.4452-5.261-1.3079-1.57-.8627-2.781-2.0315-3.663-3.562-.909-1.5306-1.349-3.2281-1.349-5.0926s.44-3.562 1.349-5.0926c.882-1.5306 2.093-2.7272 3.663-3.5899 1.57-.8626 3.305-1.2801 5.261-1.2801 1.928 0 3.663.4175 5.233 1.2801 1.569.8627 2.781 2.0593 3.663 3.5621.881 1.5305 1.322 3.2281 1.322 5.1204s-.441 3.5898-1.322 5.0926c-.882 1.5305-2.094 2.6993-3.663 3.562-1.57.8627-3.305 1.3079-5.233 1.3079Zm0-2.4767c1.404 0 2.671-.3339 3.828-.974 1.102-.64 2.01-1.5584 2.644-2.6993.661-1.141.991-2.3933.991-3.8125 0-1.4193-.33-2.6994-.991-3.8403-.634-1.141-1.515-2.0315-2.672-2.6716-1.129-.64-2.396-.9739-3.8-.9739-1.405 0-2.699.3339-3.856.9739-1.129.6401-2.038 1.5306-2.699 2.6716-.634 1.1409-.964 2.421-.964 3.8403 0 1.4192.33 2.6715.964 3.8125.661 1.1409 1.57 2.0593 2.699 2.6993 1.157.6401 2.451.974 3.856.974Zm1.68-22.4296h3.36l-4.627 3.6176h-2.479l3.746-3.6176ZM244.628 47.7772l-4.159-5.9831c-.523.0278-.909.0557-1.212.0557h-4.764v5.9274h-2.755V28.2974h7.519c2.507 0 4.462.6122 5.894 1.8088 1.432 1.1966 2.148 2.8663 2.148 4.9813 0 1.5027-.358 2.7828-1.101 3.8403-.744 1.0575-1.791 1.8367-3.14 2.3098l4.572 6.5396h-3.002Zm-5.453-8.2928c1.735 0 3.084-.3896 3.993-1.141.909-.7514 1.377-1.8367 1.377-3.2559 0-1.4193-.468-2.5046-1.377-3.2559-.909-.7514-2.258-1.1132-3.993-1.1132h-4.682v8.766h4.682ZM266.574 45.3562v2.421h-16.112v-1.8923l12.118-15.1665h-11.925v-2.421h15.561v1.8923l-12.063 15.1665h12.421ZM282.956 42.9073h-10.245l-2.121 4.8699h-2.836l8.73-19.4798h2.727l8.758 19.4798h-2.892l-2.121-4.8699Zm-.964-2.2263-4.158-9.5451-4.159 9.5451h8.317Z" fill="#000"/><path fill-rule="evenodd" clip-rule="evenodd" d="M47.3998 10.9319 22.3056 47.3297l-.0004.0012-.8474.446-20.598376-.0348L0 46.1302l4.63268-7.1352H2.02661l-.86108-1.6119 4.9168-7.5728H4.63019l-.85984-1.6143 6.51905-9.9772h1.7193l4.0366 6.1776 4.0906-6.3004h-3.6426l-.8598-1.6144L26.4028 0h1.7193l10.7693 16.4816-.8594 1.6144h-3.643l2.672 4.1156 9.4205-13.70633 1.0091-.43419 39.5675 6.39972h20.1429l.845.4455 17.142 24.8171-1.69 1.1915-16.294-23.5904-16.2959 23.593-.8486.4471h-8.9858v-2.0909h8.4462l15.7011-22.7308H87.519l-8.7229 12.6288-1.6968-1.1965 8.0874-11.7089c-6.2939-1.018-29.018-4.6936-35.5566-5.751l24.2322 35.1699h50.4807v2.0817H73.3244l-.8454-.446-25.0792-36.399ZM14.8147 26.2916l-3.6658-5.6101-4.60451 7.0467H7.9899l.8615 1.6119-4.9168 7.5732h2.60565l.8615 1.6114L2.767 45.6633l6.91935.0118C11.1912 43.357 17.741 33.2688 17.741 33.2688h-5.5485l-.8615-1.6115 3.4837-5.3657Zm-2.667 19.3876 8.7738.0151 14.8728-21.6391-4.1744-6.429.8615-1.6119h3.636L27.2626 2.46265 18.4075 16.0143h3.6364l.8611 1.6119-5.9957 9.2345-2.8089 4.3264h5.5486l.861 1.6119-8.3623 12.8802ZM112.838 29.8979v9.4663l-1.035 1.0453h-8.971l-1.035-1.0453v-9.4663l1.035-1.0452h8.971l1.035 1.0452Zm-6.555 1.0457h-2.417v7.375h2.417v-7.375Zm2.069 7.375h2.417v-7.375h-2.417v7.375Zm-52.808-8.2367v15.1556l-1.0349 1.0453h-14.363l-1.0349-1.0453V30.0819l1.0349-1.0452h14.363l1.0349 1.0452Zm-9.2508 1.0457h-5.1126v5.4869h5.1126v-5.4869Zm7.1815 5.4869v-5.4869h-5.1126v5.4869h5.1126Zm-5.1126 7.5774h5.1126V38.705h-5.1126v5.4869Zm-7.1815-5.4869v5.4869h5.1126V38.705h-5.1126Z" fill="#000"/></svg>

<svg width="288" height="48" viewBox="0 0 288 48" fill="none" xmlns="http://www.w3.org/2000/svg">
<path d="M167.519 17.2819V19.703H151.407V17.8107L163.525 2.64421H151.6V0.223145H167.161V2.11547L155.097 17.2819H167.519Z" fill="black"/>
<path d="M173.963 0.223145H171.209V19.703H173.963V0.223145Z" fill="black"/>
<path d="M193.738 17.2819V19.703H179.747V0.223145H193.353V2.64421H182.501V8.62731H192.168V10.9927H182.501V17.2819H193.738Z" fill="black"/>
<path d="M198.2 0.223145H200.954V17.2819H211.392V19.703H198.2V0.223145Z" fill="black"/>
<path d="M222.905 19.9256C220.949 19.9256 219.214 19.4803 217.644 18.6177C216.074 17.755 214.862 16.5862 213.981 15.0556C213.072 13.5251 212.632 11.8275 212.632 9.96305C212.632 8.09854 213.072 6.40101 213.981 4.87045C214.862 3.33989 216.074 2.14327 217.644 1.28059C219.214 0.417914 220.949 0.000488281 222.905 0.000488281C224.832 0.000488281 226.568 0.417914 228.137 1.28059C229.707 2.14327 230.919 3.33989 231.8 4.84263C232.682 6.37319 233.122 8.07072 233.122 9.96305C233.122 11.8554 232.682 13.5529 231.8 15.0556C230.919 16.5862 229.707 17.755 228.137 18.6177C226.568 19.4803 224.832 19.9256 222.905 19.9256ZM222.905 17.4489C224.309 17.4489 225.576 17.1149 226.733 16.4749C227.834 15.8348 228.743 14.9165 229.377 13.7755C230.038 12.6346 230.368 11.3823 230.368 9.96305C230.368 8.5438 230.038 7.26369 229.377 6.12273C228.743 4.98177 227.862 4.09126 226.705 3.45121C225.576 2.81115 224.309 2.47721 222.905 2.47721C221.5 2.47721 220.205 2.81115 219.049 3.45121C217.92 4.09126 217.011 4.98177 216.35 6.12273C215.716 7.26369 215.386 8.5438 215.386 9.96305C215.386 11.3823 215.716 12.6346 216.35 13.7755C217.011 14.9165 217.92 15.8348 219.049 16.4749C220.205 17.1149 221.5 17.4489 222.905 17.4489Z" fill="black"/>
<path d="M253.916 0.223145V19.703H251.658L240.09 5.17659V19.703H237.336V0.223145H239.595L251.162 14.7496V0.223145H253.916Z" fill="black"/>
<path d="M273.691 17.2819V19.703H259.7V0.223145H273.306V2.64421H262.454V8.62731H272.121V10.9927H262.454V17.2819H273.691Z" fill="black"/>
<path d="M166.378 28.2974L159.933 47.7772H157.041L151.781 32.2212L146.521 47.7772H143.574L137.129 28.2974H139.966L145.171 44.1317L150.597 28.2974H153.131L158.446 44.2152L163.762 28.2974H166.378Z" fill="black"/>
<path d="M184.688 45.3562V47.7772H168.577V45.8849L180.695 30.7184H168.769V28.2974H184.33V30.1897L172.267 45.3562H184.688Z" fill="black"/>
<path d="M201.925 37.9264H204.569V45.5236C203.605 46.3306 202.503 46.9428 201.236 47.3603C199.969 47.7777 198.647 48.0003 197.27 48.0003C195.315 48.0003 193.58 47.5551 192.01 46.6924C190.44 45.8297 189.228 44.6609 188.347 43.1303C187.438 41.6276 186.997 39.9301 186.997 38.0378C186.997 36.1454 187.438 34.4479 188.347 32.9173C189.228 31.3868 190.467 30.218 192.037 29.3553C193.607 28.4926 195.37 28.0752 197.325 28.0752C198.868 28.0752 200.272 28.3257 201.539 28.8544C202.778 29.3553 203.853 30.1067 204.734 31.0807L203.026 32.806C201.484 31.3033 199.611 30.5519 197.435 30.5519C195.976 30.5519 194.654 30.858 193.497 31.4981C192.313 32.1381 191.404 33.0286 190.743 34.1696C190.082 35.3106 189.751 36.6185 189.751 38.0378C189.751 39.457 190.082 40.7093 190.743 41.8502C191.404 42.9912 192.313 43.9095 193.497 44.5496C194.654 45.1896 195.948 45.5236 197.408 45.5236C199.143 45.5236 200.63 45.1062 201.925 44.2713V37.9264Z" fill="black"/>
<path d="M218.124 48.0001C216.168 48.0001 214.433 47.5549 212.863 46.6922C211.293 45.8295 210.082 44.6607 209.2 43.1302C208.291 41.5996 207.851 39.9021 207.851 38.0376C207.851 36.1731 208.291 34.4756 209.2 32.945C210.082 31.4144 211.293 30.2178 212.863 29.3551C214.433 28.4925 216.168 28.075 218.124 28.075C220.052 28.075 221.787 28.4925 223.357 29.3551C224.926 30.2178 226.138 31.4144 227.02 32.9172C227.901 34.4477 228.342 36.1453 228.342 38.0376C228.342 39.9299 227.901 41.6274 227.02 43.1302C226.138 44.6607 224.926 45.8295 223.357 46.6922C221.787 47.5549 220.052 48.0001 218.124 48.0001ZM218.124 45.5234C219.528 45.5234 220.795 45.1895 221.952 44.5494C223.054 43.9094 223.962 42.991 224.596 41.8501C225.257 40.7091 225.587 39.4568 225.587 38.0376C225.587 36.6183 225.257 35.3382 224.596 34.1973C223.962 33.0563 223.081 32.1658 221.924 31.5257C220.795 30.8857 219.528 30.5518 218.124 30.5518C216.719 30.5518 215.425 30.8857 214.268 31.5257C213.139 32.1658 212.23 33.0563 211.569 34.1973C210.935 35.3382 210.605 36.6183 210.605 38.0376C210.605 39.4568 210.935 40.7091 211.569 41.8501C212.23 42.991 213.139 43.9094 214.268 44.5494C215.425 45.1895 216.719 45.5234 218.124 45.5234ZM219.804 23.0938H223.164L218.537 26.7114H216.058L219.804 23.0938Z" fill="black"/>
<path d="M244.628 47.7772L240.469 41.7941C239.946 41.8219 239.56 41.8498 239.257 41.8498H234.493V47.7772H231.738V28.2974H239.257C241.764 28.2974 243.719 28.9096 245.151 30.1062C246.583 31.3028 247.299 32.9725 247.299 35.0875C247.299 36.5902 246.941 37.8703 246.198 38.9278C245.454 39.9853 244.407 40.7645 243.058 41.2376L247.63 47.7772H244.628ZM239.175 39.4844C240.91 39.4844 242.259 39.0948 243.168 38.3434C244.077 37.592 244.545 36.5067 244.545 35.0875C244.545 33.6682 244.077 32.5829 243.168 31.8316C242.259 31.0802 240.91 30.7184 239.175 30.7184H234.493V39.4844H239.175Z" fill="black"/>
<path d="M266.574 45.3562V47.7772H250.462V45.8849L262.58 30.7184H250.655V28.2974H266.216V30.1897L254.153 45.3562H266.574Z" fill="black"/>
<path d="M282.956 42.9073H272.711L270.59 47.7772H267.754L276.484 28.2974H279.211L287.969 47.7772H285.077L282.956 42.9073ZM281.992 40.681L277.834 31.1359L273.675 40.681H281.992Z" fill="black"/>
<path fill-rule="evenodd" clip-rule="evenodd" d="M47.3998 10.9319L22.3056 47.3297L22.3052 47.3309L21.4578 47.7769L0.859424 47.7421L0 46.1302L4.63268 38.995H2.02661L1.16553 37.3831L6.08233 29.8103H4.63019L3.77035 28.196L10.2894 18.2188H12.0087L16.0453 24.3964L20.1359 18.096H16.4933L15.6335 16.4816L26.4028 0H28.1221L38.8914 16.4816L38.032 18.096H34.389L37.061 22.2116L46.4815 8.50527L47.4906 8.07108L87.0581 14.4708H107.201L108.046 14.9163L125.188 39.7334L123.498 40.9249L107.204 17.3345L90.9081 40.9275L90.0595 41.3746H81.0737V39.2837H89.5199L105.221 16.5529H87.519L78.7961 29.1817L77.0993 27.9852L85.1867 16.2763C78.8928 15.2583 56.1687 11.5827 49.6301 10.5253L73.8623 45.6952H124.343V47.7769H73.3244L72.479 47.3309L47.3998 10.9319ZM14.8147 26.2916L11.1489 20.6815L6.54439 27.7282H7.9899L8.8514 29.3401L3.9346 36.9133H6.54025L7.40175 38.5247L2.767 45.6633L9.68635 45.6751C11.1912 43.357 17.741 33.2688 17.741 33.2688H12.1925L11.331 31.6573L14.8147 26.2916ZM12.1477 45.6792L20.9215 45.6943L35.7943 24.0552L31.6199 17.6262L32.4814 16.0143H36.1174L27.2626 2.46265L18.4075 16.0143H22.0439L22.905 17.6262L16.9093 26.8607L14.1004 31.1871H19.649L20.51 32.799L12.1477 45.6792ZM112.838 29.8979V39.3642L111.803 40.4095H102.832L101.797 39.3642V29.8979L102.832 28.8527H111.803L112.838 29.8979ZM106.283 30.9436H103.866V38.3186H106.283V30.9436ZM108.352 38.3186H110.769V30.9436H108.352V38.3186ZM55.544 30.0819V45.2375L54.5091 46.2828H40.1461L39.1112 45.2375V30.0819L40.1461 29.0367H54.5091L55.544 30.0819ZM46.2932 31.1276H41.1806V36.6145H46.2932V31.1276ZM53.4747 36.6145V31.1276H48.3621V36.6145H53.4747ZM48.3621 44.1919H53.4747V38.705H48.3621V44.1919ZM41.1806 38.705V44.1919H46.2932V38.705H41.1806Z" fill="black"/>
</svg>
